src/assets/icons/receipt-list-43 1.svg

<svg xmlns="http://www.w3.org/2000/svg" width="24" height="24" fill="none" viewBox="0 0 24 24">
  <path fill="#52D5BA" d="M21 0H3a1 1 0 0 0-1 1v23l4-3 3 3 3-3 3 3 3-3 4 3V1a1 1 0 0 0-1-1Zm-8 16H6v-2h7v2Zm0-4H6v-2h7v2Zm0-4H6V6h7v2Zm5 8h-3v-2h3v2Zm0-4h-3v-2h3v2Zm0-4h-3V6h3v2Z"/>
</svg>

<svg width="24" height="24" viewBox="0 0 24 24" fill="none" xmlns="http://www.w3.org/2000/svg">
<path d="M21 0H3C2.448 0 2 0.447 2 1V24L6 21L9 24L12 21L15 24L18 21L22 24V1C22 0.447 21.552 0 21 0ZM13 16H6V14H13V16ZM13 12H6V10H13V12ZM13 8H6V6H13V8ZM18 16H15V14H18V16ZM18 12H15V10H18V12ZM18 8H15V6H18V8Z" fill="#52D5BA"/>
</svg>
